X:32
T:Նազելի
T:Nazeli
C:Armenian Trad. Dance
O:Armenia
Z:Avetik Topchyan (adaptation)
L:1/8
Q:1/4=120
M:6/8
U:t=tenuto
K:G
%%MIDI program 73
%%MIDI drumon
%%MIDI drumbars 2
%%MIDI drum d2d2ddz2dddd 41 37 37 37 37 37 37 37 
   z2       (B,/C/) (^DEF)  | (G>BA) (GFE)             |  G>(FE)  (^DEG)       | 
   F>(AG) F3-               | F        z       F (GAc) | (~B2   A)     (GFE)   |  
   E>(^DF) (EDC)            | B,6                      | B,>(B,C) (^DEF)       | G>(BA) (GFE)          |  
   G>(FE)  (^DEG)           | F>(AG) F3-               |F      z       F (GAc) | 
  (~B2   A)     (GFE)   |  G>(FG)  (FE^D)       | EF^D   E2 z          :|
   E>(^DE)  (FGA)           | tB     z      tB- tB B2  |: B>(AB)   (B/c/   A2) | 
   A>(GA) (A/B/  G2)        |  G>(FG)  (G/A/) F2-      | F      z (F GAB)      |
   A>(GA)   (A/B/   G2)     | G>(FG) (G/A/  F2) z/     |  F>(EF)  (G E2-)      | 
   E      z (G FEF)         | G>(FG)   (G/A/   F2-)    | F      z   (A GFG)    |  
   A>(GA)  (A/B/ G2-)       | G      z (G ABc)         | B>(cB)   (c/B/) (A>B) | 
   A>(BA) (B/A/) (G>A)      |  G>(AG)  (A/G/) (F>G)    | F>(GF) (G/F/) (E>^D)  |1
   E>(cB)   (AGF)           | E      z      tB- tB B2 :|2 E>(cB   (A)GF)       | E>F^D  E2 z           |]
%
%
